icons/tokens/0x5d3a536E4D6DbD6114cc1Ead35777bAB948E3643/logo.svg

<svg width="32" height="32" viewBox="0 0 32 32" fill="none" xmlns="http://www.w3.org/2000/svg">
<path fill-rule="evenodd" clip-rule="evenodd" d="M32.0001 16.0001C32.0001 7.17164 24.8285 0.00012207 16.0001 0.00012207C7.17158 0.00012207 6.10352e-05 7.17164 6.10352e-05 16.0001C6.10352e-05 24.8286 7.17158 32.0001 16.0001 32.0001C24.8285 32.0001 32.0001 24.8286 32.0001 16.0001Z" fill="white"/>
<path fill-rule="evenodd" clip-rule="evenodd" d="M26.2846 28.2568L25.0628 26.8008C19.3418 31.6011 10.8698 31.1076 5.74472 25.6756C0.6196 20.2433 0.6196 11.7569 5.74472 6.3246C10.8698 0.892603 19.3418 0.399163 25.0628 5.19948L26.2846 3.74348C19.7924 -1.7042 10.178 -1.14452 4.362 5.02028C-1.454 11.1848 -1.454 20.8155 4.362 26.98C10.178 33.1448 19.7924 33.7044 26.2846 28.2568Z" fill="url(#paint0_linear)"/>
<path fill-rule="evenodd" clip-rule="evenodd" d="M26.2846 28.2568L25.0628 26.8007C28.2554 24.1217 30.0993 20.1678 30.0993 16.0001C30.0993 11.8324 28.2554 7.87851 25.0628 5.19947L26.2846 3.74347C29.9076 6.78347 32.0001 11.2705 32.0001 16.0001C32.0001 20.7297 29.9076 25.2168 26.2846 28.2568Z" fill="#EDF0F2"/>
<path fill-rule="evenodd" clip-rule="evenodd" d="M11.5535 18.5366V21.9388L11.5517 21.94V21.9463C12.9895 21.9266 14.4272 21.9266 15.8646 21.9463C16.3528 21.953 16.8406 21.9219 17.3188 21.8294C17.8239 21.7315 18.3187 21.5827 18.7856 21.3682C18.9876 21.2756 19.1815 21.1636 19.377 21.0507L19.3771 21.0507L19.3771 21.0507C19.4283 21.0211 19.4797 20.9914 19.5313 20.9621C19.7632 20.7986 19.9855 20.622 20.1963 20.4332C20.7744 19.9156 21.2218 19.2702 21.5014 18.5503C21.5203 18.4696 21.6001 18.4176 21.6818 18.4334H22.8562C22.9497 18.4334 22.9807 18.4023 22.9807 18.2977V17.5531C22.9871 17.4816 22.9871 17.4096 22.9807 17.3381C22.9807 17.3194 22.9856 17.3008 22.9904 17.2822C23 17.2452 23.0096 17.2084 22.9807 17.1715H21.9994C21.8808 17.1715 21.8808 17.1593 21.8808 17.0548C21.9148 16.6799 21.9011 16.3046 21.8808 15.929C21.8747 15.8183 21.8997 15.8183 21.9866 15.8183H22.8441C22.9439 15.8183 22.9768 15.7933 22.9813 15.695C22.9968 15.3582 22.9968 15.0219 22.9813 14.6858C22.9782 14.6192 22.9766 14.5854 22.9589 14.5682C22.9405 14.5503 22.9048 14.5503 22.8322 14.5503H21.7198C21.6331 14.5649 21.5499 14.507 21.534 14.421C21.4066 14.091 21.2471 13.7732 21.0486 13.4794C20.8517 13.188 20.6346 12.9096 20.3838 12.6614C20.0567 12.3379 19.6908 12.0545 19.2903 11.8244C18.6884 11.4786 18.0303 11.2361 17.3451 11.1108C17.0128 11.05 16.6771 11 16.3384 11H11.678C11.5535 11 11.5535 11.0248 11.5535 11.1233V14.4397C11.5535 14.5566 11.5284 14.5566 11.4354 14.5566H10.0994C10 14.5566 10 14.5745 10 14.6425V15.7252C10 15.8236 10.0308 15.8236 10.1056 15.8236H11.4543C11.5535 15.8236 11.5535 15.8417 11.5535 15.9156V17.0723C11.5535 17.177 11.5221 17.177 11.4417 17.177H10V18.346C10 18.4444 10.0308 18.4444 10.1056 18.4444H11.4543C11.5535 18.4444 11.5535 18.4562 11.5535 18.5366ZM20.4334 17.1703H16.6555H12.9513C12.8757 17.1703 12.8385 17.1703 12.8202 17.1518C12.8026 17.1338 12.8026 17.0985 12.8026 17.029V15.9339C12.8026 15.8474 12.8274 15.8169 12.9203 15.8169H20.4397C20.5209 15.8169 20.5579 15.8474 20.5579 15.9213C20.5887 16.3022 20.5791 16.6844 20.5579 17.0658C20.5521 17.1703 20.5141 17.1703 20.4334 17.1703ZM20.1358 14.5369C20.1466 14.509 20.1466 14.4787 20.1358 14.4511C20.0728 14.315 19.998 14.1853 19.9113 14.0634C19.7807 13.8551 19.6265 13.6633 19.4513 13.4911C19.3686 13.3869 19.2728 13.2936 19.1654 13.2142C18.6275 12.761 17.9879 12.4403 17.3009 12.279C16.9549 12.1979 16.5999 12.1652 16.2443 12.1682C15.1321 12.1776 14.0199 12.1776 12.9075 12.1682C12.8142 12.1674 12.8019 12.205 12.8019 12.2851V14.4692C12.8019 14.5614 12.8019 14.5862 12.92 14.5862H20.0911L20.0911 14.5862C20.0943 14.5855 20.1532 14.5739 20.1659 14.5369H20.1358ZM19.8181 18.4503C19.9237 18.4387 20.0303 18.4387 20.1359 18.4503V18.4509C20.1845 18.4752 20.144 18.5626 20.1413 18.5684L20.1413 18.5685C19.7592 19.309 19.1533 19.9127 18.4074 20.2966H18.3641C18.2205 20.3812 18.0666 20.4468 17.9109 20.5057C17.4777 20.6693 17.0235 20.7685 16.5616 20.8012C16.4126 20.8325 16.2605 20.8432 16.1084 20.8319H12.9266C12.8026 20.8319 12.8026 20.8069 12.8026 20.7087V18.5732C12.8026 18.4503 12.8338 18.4503 12.9266 18.4503H19.8181Z" fill="black"/>
<defs>
<linearGradient id="paint0_linear" x1="3.37603" y1="0" x2="3.37603" y2="32.0002" gradientUnits="userSpaceOnUse">
<stop stop-color="#27D3A2"/>
<stop offset="1" stop-color="#9388FD"/>
</linearGradient>
</defs>
</svg>

<svg fill="none" viewBox="0 0 32 32"><path fill="#fff" fill-rule="evenodd" d="M32 16c0-8.828-7.172-16-16-16S0 7.172 0 16c0 8.829 7.172 16 16 16s16-7.171 16-16z" clip-rule="evenodd"/><path fill="url(#paint0_linear)" fill-rule="evenodd" d="M26.285 28.257L25.063 26.8c-5.721 4.8-14.193 4.307-19.318-1.125-5.125-5.433-5.125-13.92 0-19.351C10.87.893 19.342.399 25.063 5.199l1.222-1.456C19.792-1.704 10.178-1.145 4.362 5.02c-5.816 6.165-5.816 15.796 0 21.96 5.816 6.165 15.43 6.724 21.923 1.277z" clip-rule="evenodd"/><path fill="#EDF0F2" fill-rule="evenodd" d="M26.285 28.257L25.063 26.8a14.1 14.1 0 000-21.602l1.222-1.456a16 16 0 010 24.514z" clip-rule="evenodd"/><path fill="#000" fill-rule="evenodd" d="M11.553 18.537v3.402l-.001.001v.006c1.438-.02 2.875-.02 4.313 0 .488.007.976-.024 1.454-.117.505-.098 1-.246 1.467-.46.202-.093.395-.205.591-.318l.154-.089c.232-.163.454-.34.665-.529a4.92 4.92 0 001.305-1.883.155.155 0 01.18-.117h1.175c.094 0 .125-.03.125-.135v-.745a1.206 1.206 0 000-.215c0-.019.005-.037.01-.056.009-.037.019-.074-.01-.11h-.982c-.118 0-.118-.013-.118-.117a7.79 7.79 0 000-1.126c-.006-.11.019-.11.106-.11h.857c.1 0 .133-.026.137-.124.016-.337.016-.673 0-1.01-.003-.066-.004-.1-.022-.117-.018-.018-.054-.018-.127-.018H21.72a.162.162 0 01-.186-.129 4.704 4.704 0 00-.485-.942 5.375 5.375 0 00-.665-.818 5.344 5.344 0 00-1.094-.837 6.116 6.116 0 00-1.945-.713A5.604 5.604 0 0016.338 11h-4.66c-.125 0-.125.025-.125.123v3.317c0 .117-.025.117-.118.117H10.1c-.099 0-.099.018-.099.085v1.083c0 .099.03.099.106.099h1.348c.1 0 .1.018.1.092v1.156c0 .105-.032.105-.112.105H10v1.169c0 .098.03.098.106.098h1.348c.1 0 .1.012.1.093zm8.88-1.367h-7.482c-.075 0-.113 0-.13-.018-.018-.018-.018-.053-.018-.123v-1.095c0-.087.024-.117.117-.117h7.52c.08 0 .118.03.118.104.03.381.021.763 0 1.145-.006.104-.044.104-.125.104zm-.297-2.633a.118.118 0 000-.086 2.427 2.427 0 00-.225-.388c-.13-.208-.285-.4-.46-.572a1.515 1.515 0 00-.286-.277 4.486 4.486 0 00-1.864-.935 4.46 4.46 0 00-1.057-.11c-1.112.009-2.224.009-3.336 0-.094-.002-.106.036-.106.116v2.184c0 .092 0 .117.118.117h7.171c.003 0 .062-.012.075-.05h-.03zm-.318 3.913c.106-.011.212-.011.318 0 .049.025.008.113.005.118a4.017 4.017 0 01-1.734 1.729h-.043c-.143.084-.297.15-.453.209a4.77 4.77 0 01-1.35.295 1.618 1.618 0 01-.453.03h-3.181c-.124 0-.124-.024-.124-.122v-2.136c0-.123.03-.123.124-.123h6.891z" clip-rule="evenodd"/><defs><linearGradient id="paint0_linear" x1="3.376" x2="3.376" y1="0" y2="32" gradientUnits="userSpaceOnUse"><stop stop-color="#27D3A2"/><stop offset="1" stop-color="#9388FD"/></linearGradient></defs></svg>
